build/assets/images/content/docs.svg

<svg width="512" height="512" fill="none" xmlns="http://www.w3.org/2000/svg"><path d="M463.996 126.864L340.192 3.061A10.452 10.452 0 00332.803 0H95.726C67.724 0 44.944 22.782 44.944 50.784v410.434c0 28.001 22.781 50.783 50.783 50.783h320.547c28.002 0 50.783-22.781 50.783-50.783V134.253a10.458 10.458 0 00-3.061-7.389zM343.255 35.679l88.127 88.126H373.14c-7.984 0-15.49-3.109-21.134-8.753-5.643-5.643-8.752-13.148-8.751-21.131V35.679zm102.903 425.538c0 16.479-13.406 29.885-29.884 29.885H95.726c-16.479 0-29.885-13.406-29.885-29.885V50.784c.001-16.479 13.407-29.886 29.885-29.886h226.631v73.021c-.002 13.565 5.28 26.318 14.871 35.909 9.592 9.592 22.345 14.874 35.911 14.874h73.018v316.515h.001z" fill="#fff"/><path d="M275.092 351.492h-4.678c-5.77 0-10.449 4.678-10.449 10.449s4.679 10.449 10.449 10.449h4.678c5.77 0 10.449-4.678 10.449-10.449s-4.679-10.449-10.449-10.449zm-38.482 0H135.118c-5.77 0-10.449 4.678-10.449 10.449s4.679 10.449 10.449 10.449H236.61c5.77 0 10.449-4.678 10.449-10.449s-4.678-10.449-10.449-10.449zm140.272-47.745H135.119c-5.77 0-10.449 4.678-10.449 10.449s4.679 10.449 10.449 10.449h241.763c5.77 0 10.449-4.678 10.449-10.449s-4.679-10.449-10.449-10.449zm0-47.747H135.119c-5.77 0-10.449 4.678-10.449 10.449s4.679 10.449 10.449 10.449h241.763c5.77 0 10.449-4.678 10.449-10.449S382.652 256 376.882 256zm0-47.745H135.119c-5.77 0-10.449 4.678-10.449 10.449s4.679 10.449 10.449 10.449h241.763c5.77 0 10.449-4.678 10.449-10.449s-4.679-10.449-10.449-10.449z" fill="#fff"/></svg>

<svg width="512" height="512" viewBox="0 0 512 512" fill="none" xmlns="http://www.w3.org/2000/svg">
<path d="M463.996 126.864L340.192 3.061C338.231 1.101 335.574 0 332.803 0H95.726C67.724 0 44.944 22.782 44.944 50.784V461.218C44.944 489.219 67.725 512.001 95.727 512.001H416.274C444.276 512.001 467.057 489.22 467.057 461.218V134.253C467.056 131.482 465.955 128.824 463.996 126.864ZM343.255 35.679L431.382 123.805H373.14C365.156 123.805 357.65 120.696 352.006 115.052C346.363 109.409 343.254 101.904 343.255 93.921V35.679ZM446.158 461.217C446.158 477.696 432.752 491.102 416.274 491.102H95.726C79.247 491.102 65.841 477.696 65.841 461.217V50.784C65.842 34.305 79.248 20.898 95.726 20.898H322.357V93.919C322.355 107.484 327.637 120.237 337.228 129.828C346.82 139.42 359.573 144.702 373.139 144.702H446.157V461.217H446.158Z" fill="white"/>
<path d="M275.092 351.492H270.414C264.644 351.492 259.965 356.17 259.965 361.941C259.965 367.712 264.644 372.39 270.414 372.39H275.092C280.862 372.39 285.541 367.712 285.541 361.941C285.541 356.17 280.862 351.492 275.092 351.492Z" fill="white"/>
<path d="M236.61 351.492H135.118C129.348 351.492 124.669 356.17 124.669 361.941C124.669 367.712 129.348 372.39 135.118 372.39H236.61C242.38 372.39 247.059 367.712 247.059 361.941C247.059 356.17 242.381 351.492 236.61 351.492Z" fill="white"/>
<path d="M376.882 303.747H135.119C129.349 303.747 124.67 308.425 124.67 314.196C124.67 319.967 129.349 324.645 135.119 324.645H376.882C382.652 324.645 387.331 319.967 387.331 314.196C387.331 308.425 382.652 303.747 376.882 303.747Z" fill="white"/>
<path d="M376.882 256H135.119C129.349 256 124.67 260.678 124.67 266.449C124.67 272.22 129.349 276.898 135.119 276.898H376.882C382.652 276.898 387.331 272.22 387.331 266.449C387.331 260.678 382.652 256 376.882 256Z" fill="white"/>
<path d="M376.882 208.255H135.119C129.349 208.255 124.67 212.933 124.67 218.704C124.67 224.475 129.349 229.153 135.119 229.153H376.882C382.652 229.153 387.331 224.475 387.331 218.704C387.331 212.933 382.652 208.255 376.882 208.255Z" fill="white"/>
</svg>
